X:1
T:Poor Murdered Woman
M:3/4
L:1/4
K:Bb
 F/2G/2| F D3/2 C/2| B, C3/2 C/2| F DE/2-D/2| C2 C| G B3/2 G/2|A/2-B/2 cB/2-A/2|\
 F3/2 G/2 B| G2 C| G B3/2 G/2|A/2-B/2 c3/2 c/2| F GB/2-A/2| G2 A/2G/2|\
 F D C| B, C F| F DE/2-D/2| C2||

